packages/ui-icons/src/Service-logos/24/MapsMe.svg

<svg viewBox="0 0 32 32" fill="none" xmlns="http://www.w3.org/2000/svg">
<path d="M28 16C28 22.6274 22.6274 28 16 28C9.37262 28 4 22.6274 4 16C4 9.37262 9.37262 4 16 4C22.6274 4 28 9.37262 28 16Z" fill="#77D563"/>
<path d="M11.6269 18.5063C11.5799 18.4585 11.5029 18.4581 11.4556 18.5055L9.4671 20.4931L9.59572 21.1034C9.79747 22.1536 10.8219 22.8798 11.8722 22.6781L14.9191 22.0926C15.0016 22.0768 15.0333 21.9753 14.9744 21.9153L11.6269 18.5063Z" fill="white"/>
<path d="M11.0324 18.051C11.0822 18.0012 11.0827 17.9205 11.0333 17.8703L8.77111 15.5667C8.68214 15.4761 8.5298 15.5561 8.5538 15.6808L9.2887 19.5059C9.30811 19.6067 9.43233 19.645 9.50508 19.5725L11.0324 18.051Z" fill="white"/>
<path d="M14.6075 14.271C14.6672 14.3317 14.765 14.3322 14.8254 14.272L18.3855 10.7252C18.4695 10.6415 18.3944 10.4995 18.2778 10.5219L12.3108 11.6684C12.2165 11.6864 12.1803 11.8024 12.2477 11.8709L14.6075 14.271Z" fill="white"/>
<path d="M21.4837 14.9543L23.7729 17.2576C23.8479 17.3331 23.9753 17.266 23.9556 17.1615L23.2246 13.2756C23.2086 13.1905 23.104 13.158 23.0425 13.2188L21.4846 14.7575C21.4299 14.8115 21.4296 14.8997 21.4837 14.9543Z" fill="white"/>
<path d="M18.3967 11.8019L20.846 14.3073C20.9045 14.3671 21.0005 14.368 21.06 14.309L23.0417 12.3476L22.9167 11.6039C22.7148 10.5538 21.7248 9.85955 20.6747 10.0614L19.7847 10.2221L18.3987 11.5889C18.3395 11.6473 18.3386 11.7425 18.3967 11.8019Z" fill="white"/>
<path d="M11.6543 17.381L14.1507 14.9418C14.2165 14.8775 14.2176 14.772 14.1531 14.7065L11.3694 11.8754L9.85355 12.1403C8.86242 12.3307 8.18883 13.2014 8.28567 14.1873L11.4197 17.3786C11.4839 17.444 11.5888 17.445 11.6543 17.381Z" fill="white"/>
<path d="M17.908 17.4713L20.4509 14.9498C20.4937 14.9074 20.4941 14.8384 20.4518 14.7955L17.9177 12.2242C17.8751 12.181 17.8055 12.1808 17.7627 12.2237L15.2337 14.7527C15.1913 14.7951 15.1909 14.8637 15.233 14.9065L17.7533 17.4702C17.7957 17.5135 17.865 17.5138 17.908 17.4713Z" fill="white"/>
<path d="M17.9055 18.5188C17.858 18.4702 17.7801 18.4698 17.732 18.5177L15.1973 21.0459C15.1497 21.0934 15.1496 21.1706 15.1971 21.2184L15.868 21.8914L20.128 21.0714C20.225 21.0527 20.2622 20.9337 20.1932 20.863L17.9055 18.5188Z" fill="white"/>
<path d="M24.2223 18.625L21.0541 15.4098C20.9995 15.3543 20.9101 15.3541 20.8552 15.4093L18.3739 17.9035C18.3198 17.9578 18.3196 18.0457 18.3733 18.1004L21.0991 20.8732L22.6932 20.5669C23.6356 20.3858 24.2434 19.5551 24.2223 18.625Z" fill="white"/>
<path d="M14.6804 17.2709C14.2892 17.2709 13.972 17.5879 13.972 17.9791C13.972 18.3704 14.2892 18.6875 14.6804 18.6875C15.0717 18.6875 15.3887 18.3704 15.3887 17.9791C15.3887 17.5879 15.0717 17.2709 14.6804 17.2709Z" fill="white"/>
<path d="M12.6473 11.2362L13.2362 11.1075C13.302 11.0932 13.3506 11.0372 13.3556 10.9701L13.3471 10.7014C13.3631 10.489 13.4706 10.271 13.6086 10.1088C13.7706 9.9182 13.9593 9.76895 14.1986 9.72067L15.6222 9.42902C15.9433 9.36423 16.4026 9.51386 16.6526 9.7847C16.8143 9.96442 16.9035 10.1529 16.9461 10.2635C16.9678 10.3195 17.0258 10.3525 17.085 10.3417L17.6623 10.2363C17.7313 10.2237 17.7768 10.1564 17.7614 10.0879C17.7273 9.93582 17.6229 9.64989 17.3054 9.24301C16.9651 8.78467 16.1106 8.49507 15.491 8.62014L14.0889 8.90307C13.3913 9.04389 12.7707 9.55548 12.6041 10.2708C12.5106 10.5561 12.5076 10.9355 12.5139 11.1325C12.5162 11.2012 12.5801 11.2509 12.6473 11.2362Z" fill="white"/>
</svg>

<svg viewBox="0 0 32 32" fill="none" xmlns="http://www.w3.org/2000/svg"><path d="M28 16c0 6.627-5.373 12-12 12S4 22.627 4 16 9.373 4 16 4s12 5.373 12 12Z" fill="#77D563"/><path d="M11.627 18.506a.12.12 0 0 0-.171 0l-1.989 1.987.129.61c.201 1.05 1.226 1.777 2.276 1.575l3.047-.585a.105.105 0 0 0 .055-.178l-3.347-3.409ZM11.032 18.051c.05-.05.05-.13.001-.18l-2.262-2.304a.128.128 0 0 0-.217.114l.735 3.825c.02.1.143.139.216.067l1.527-1.522ZM14.607 14.271c.06.06.158.061.218.001l3.56-3.547a.12.12 0 0 0-.107-.203l-5.967 1.146a.12.12 0 0 0-.063.203l2.36 2.4ZM21.484 14.954l2.289 2.304a.108.108 0 0 0 .183-.096l-.731-3.886a.108.108 0 0 0-.183-.057l-1.557 1.539a.14.14 0 0 0-.001.196ZM18.397 11.802l2.449 2.505a.15.15 0 0 0 .214.002l1.982-1.961-.125-.744c-.202-1.05-1.192-1.744-2.242-1.543l-.89.161-1.386 1.367a.15.15 0 0 0-.002.213ZM11.654 17.381l2.497-2.44a.166.166 0 0 0 .002-.235l-2.784-2.83-1.515.264c-.992.19-1.665 1.061-1.568 2.047l3.134 3.192c.064.065.169.066.234.002ZM17.908 17.471l2.543-2.521a.11.11 0 0 0 0-.154l-2.533-2.572a.11.11 0 0 0-.155 0l-2.53 2.529a.11.11 0 0 0 0 .153l2.52 2.564a.11.11 0 0 0 .155.001ZM17.905 18.519a.122.122 0 0 0-.173-.001l-2.535 2.528a.122.122 0 0 0 0 .172l.671.673 4.26-.82a.124.124 0 0 0 .065-.208l-2.288-2.344ZM24.222 18.625l-3.168-3.215a.14.14 0 0 0-.199 0l-2.481 2.494a.14.14 0 0 0 0 .196l2.725 2.773 1.594-.306c.943-.181 1.55-1.012 1.53-1.942ZM14.68 17.27a.708.708 0 1 0 0 1.417.708.708 0 0 0 0-1.416ZM12.647 11.236l.59-.129a.152.152 0 0 0 .119-.137l-.009-.269c.016-.212.124-.43.262-.592.162-.19.35-.34.59-.388l1.423-.292c.321-.065.78.085 1.03.356.162.18.252.368.294.479.022.056.08.088.139.078l.577-.106a.124.124 0 0 0 .1-.148c-.035-.152-.14-.438-.457-.845-.34-.458-1.194-.748-1.814-.623l-1.402.283c-.698.14-1.318.652-1.485 1.368-.093.285-.096.664-.09.861a.11.11 0 0 0 .133.104Z" fill="#fff"/></svg>
